X:1
T:Title
%%score 1 { 2 | 3 }
L:1/8
Q:1/4=90
M:6/8
K:A
V:1 treble nm="Grand Piano, Soprano"
V:2 treble nm="Choir Pad, Coloma, 98.98 D"
V:3 bass 
V:1
 [FA][FA][^EG] [FA][GB][Ac] | [Bd] [FA]2- [FA] [DF]2 | [FA][FA][=GB] [FA][CE][DF] | %3
w: By~Daniel~Brink~Towner,~1899 * * * * *|||
 [E=G] [DF]2- [DF]2- [DF]/ z/ | [FA][FA][EG] [FA][GB][Ac] | [Bd] [FA]2- [FA] [DF]2 | %6
w: |||
 [DF][DE][DG] [CA][DB][Ec]- | [Ec]/[DB]/ [CA]2- [CA]2- [CA]/ z/ | [CA][CA][E=G] [EG][EG][Gc] | %9
w: |||
 [=GB] [GB]2- [GB] [FA]2 | [FA][FA][E=G] [EG][EG][Gc] | [=GB] [FA]2- [FA]2- [FA]/ z/ | %12
w: |||
 [FA][Fd][Fc] [Fd][=Ge][Bd] | [=GB] [FA]2- [FA] [Fd]2 | [^EB][FB][FA] [DF][CA][C=G] | %15
w: |||
 [CE] D2- D3- | D6 |] %17
w: ||
V:2
 DDD DDD | D D2- D A,2 | DDD[K:bass] A,A,A, | A, A,2- A,2- A,/ z/ | DDD DDD | D D2- D[K:bass] A,2 | %6
 A,G,B, A,G,G,- | G,/E,/ E,2- E,2- E,/ z/ | E,E,A,[K:treble] CCE | C D2- D D2 | DDC CCE | %11
 C D2- D2- D/ z/ | D[K:bass]A,A, A,B,D | D D2- D A,2 | G,[K:bass]A,D A,=G,E, | =G, F,2- F,3- | %16
 F,6 |] %17
V:3
 D,D,D, D,=G,,G,, | =G,, D,2- D, D,2 | D,A,,A,, A,,A,,A,, | A,, D,2- D,2- D,/ z/ | %4
 D,D,D, D,=G,,G,, | =G,, D,2- D, D,2 | D,E,E, E,E,E,- | E, A,,2- A,,2- A,,/ z/ | %8
 A,,A,,A,, A,,A,,A,, | A,, D,2- D, D,2 | D,A,,A,, A,,A,,A,, | A,, D,2- D,2- D,/ z/ | %12
 D,D,D, D,=G,G, | =G, D,2- D, D,2 | D,D,D, D,A,,A,, | A,, D,2- D,3- | D,6 |] %17

